svgs/regular/list-ul.svg

<svg xmlns="http://www.w3.org/2000/svg" viewBox="0 0 512 512"><!-- Font Awesome Pro 6.0.0-alpha2 by @fontawesome - https://fontawesome.com License - https://fontawesome.com/license (Commercial License) --><path d="M48 224C30.334 224 16 238.332 16 256C16 273.666 30.334 288 48 288S80 273.666 80 256C80 238.332 65.666 224 48 224ZM48 64C30.334 64 16 78.332 16 96C16 113.666 30.334 128 48 128S80 113.666 80 96C80 78.332 65.666 64 48 64ZM48 384C30.334 384 16 398.332 16 416C16 433.666 30.334 448 48 448S80 433.666 80 416C80 398.332 65.666 384 48 384ZM488 72H184C170.745 72 160 82.745 160 96V96C160 109.255 170.745 120 184 120H488C501.255 120 512 109.255 512 96V96C512 82.745 501.255 72 488 72ZM488 392H184C170.745 392 160 402.745 160 416V416C160 429.255 170.745 440 184 440H488C501.255 440 512 429.255 512 416V416C512 402.745 501.255 392 488 392ZM488 232H184C170.745 232 160 242.745 160 256V256C160 269.255 170.745 280 184 280H488C501.255 280 512 269.255 512 256V256C512 242.745 501.255 232 488 232Z"/></svg>

<svg xmlns="http://www.w3.org/2000/svg" viewBox="0 0 512 512"><!--! Font Awesome Pro 6.3.0 by @fontawesome - https://fontawesome.com License - https://fontawesome.com/license (Commercial License) Copyright 2023 Fonticons, Inc. --><path d="M64 64a32 32 0 1 0 0 64 32 32 0 1 0 0-64zm120 8c-13.3 0-24 10.7-24 24s10.7 24 24 24H488c13.3 0 24-10.7 24-24s-10.7-24-24-24H184zm0 160c-13.3 0-24 10.7-24 24s10.7 24 24 24H488c13.3 0 24-10.7 24-24s-10.7-24-24-24H184zm0 160c-13.3 0-24 10.7-24 24s10.7 24 24 24H488c13.3 0 24-10.7 24-24s-10.7-24-24-24H184zM96 256a32 32 0 1 0 -64 0 32 32 0 1 0 64 0zM64 384a32 32 0 1 0 0 64 32 32 0 1 0 0-64z"/></svg>
